workspaces/osm/styles/symbols/water_tower.svg

<?xml version="1.0" encoding="UTF-8" standalone="no"?>
<!-- Created with Inkscape (http://www.inkscape.org/) -->

<svg
   xmlns:dc="http://purl.org/dc/elements/1.1/"
   xmlns:cc="http://creativecommons.org/ns#"
   xmlns:rdf="http://www.w3.org/1999/02/22-rdf-syntax-ns#"
   xmlns:svg="http://www.w3.org/2000/svg"
   xmlns="http://www.w3.org/2000/svg"
   version="1.1"
   width="14"
   height="14"
   viewBox="0 0 14 14"
   id="svg2">
  <metadata
     id="metadata8">
    <rdf:RDF>
      <cc:Work
         rdf:about="">
        <dc:format>image/svg+xml</dc:format>
        <dc:type
           rdf:resource="http://purl.org/dc/dcmitype/StillImage" />
        <dc:title></dc:title>
      </cc:Work>
    </rdf:RDF>
  </metadata>
  <defs
     id="defs6" />
  <rect
     width="14"
     height="14"
     x="0"
     y="0"
     id="canvas"
     style="fill:none;stroke:none;visibility:hidden" />
  <path
     d="M 2,0 2,3.5 C 2,4.9469172 2.7905512,5.9802716 3.90625,6.625 L 3,14 4.5,14 4.6875,12.53125 7,11 9.3125,12.5625 9.5,14 11,14 10.09375,6.65625 C 11.21821,6.0132746 12,4.9628112 12,3.5 l 0,-3.5 -1.5,0 0,1.5 -0.5,0 C 8.8728814,2 8,2 7,1.5 6,1 5.0381356,1 4,1.5 l -0.5,0 0,-1.5 z m 3.34375,7.1875 c 1.069224,0.2671613 2.2426846,0.2935662 3.3125,0.03125 L 8.84375,8.78125 7,10 5.15625,8.78125 z m -0.3125,2.5 L 6.25,10.5 4.8125,11.46875 z m 3.9375,0 L 9.1875,11.46875 7.75,10.5 z"
     id="water-tower" />
</svg>

<svg width="14" height="14" version="1.1" viewBox="0 0 14 14" xmlns="http://www.w3.org/2000/svg"><rect id="a" width="14" height="14" fill="none" visibility="hidden"/><path id="b" d="m2 0c0.00321 1.2336-0.00657 2.4673 0.00516 3.7007 0.033977 1.1073 0.67985 2.1328 1.5963 2.7327 0.20762 0.098292 0.36786 0.20797 0.27344 0.44706-0.29162 2.3732-0.58324 4.7464-0.87485 7.1195h1.5c0.0625-0.48958 0.125-0.97917 0.1875-1.4688 0.77083-0.51042 1.5417-1.0208 2.3125-1.5312 0.77083 0.52083 1.5417 1.0417 2.3125 1.5625 0.0625 0.47917 0.125 0.95833 0.1875 1.4375h1.5c-0.30208-2.4479-0.60417-4.8958-0.90625-7.3438 0.97496-0.53528 1.7357-1.5055 1.8705-2.627 0.065119-0.65568 0.024372-1.3164 0.035789-1.9746v-2.0547h-1.5v1.5c-0.21974 0.018686-0.45751-0.0513-0.65686 0.067017-0.77375 0.33988-1.6809 0.42853-2.4733 0.097046-0.50669-0.2246-1.0129-0.4889-1.5773-0.52588-0.62519-0.068288-1.2499 0.10671-1.8123 0.36182h-0.4802v-1.5h-1.5zm3.3438 7.1875c1.0809 0.26743 2.228 0.29417 3.3125 0.03125 0.0625 0.52083 0.125 1.0417 0.1875 1.5625-0.61458 0.40625-1.2292 0.8125-1.8438 1.2188-0.61458-0.40625-1.2292-0.8125-1.8438-1.2188l0.1875-1.5938zm-0.3125 2.5c0.40625 0.27083 0.8125 0.54167 1.2188 0.8125-0.47917 0.32292-0.95833 0.64583-1.4375 0.96875 0.072917-0.59375 0.14583-1.1875 0.21875-1.7812zm3.9375 0c0.072917 0.59375 0.14583 1.1875 0.21875 1.7812-0.47917-0.32292-0.95833-0.64583-1.4375-0.96875 0.40625-0.27083 0.8125-0.54167 1.2188-0.8125z"/></svg>
